X:54
T:VEUZE
Z: Yves BELOTTEAU
M:2/4
L:1/16
Q:1/4=60
K:G
|dc/2B/2AB cBA3/2 z/2 |AA/2A/2AA AG/2A/2BG|dc/2B/2AB cBA3/2 z/2 |AA/2A/2
dc BAGD|
EFG3/2 z/2 ABGD|EFG3/2 z/2 ABGD|EFG3/2 z/2 ABc3/2 z/2 |BABG ABA z |
ADEF G3/2 z/2 AB|GDEF G3/2 z/2 AB|GDEF G3/2 z/2 AB|c3/2 z/2 BA BGAB|
A z AD AFG z |G|
